src/images/facebook-icon.svg

<svg width="20" height="20" viewBox="0 0 20 20" fill="none" xmlns="http://www.w3.org/2000/svg">
<g clip-path="url(#clip0_22618_624)">
<path d="M18.8958 0H1.10417C0.494167 0 0 0.494167 0 1.10417V18.8967C0 19.5058 0.494167 20 1.10417 20H10.6833V12.255H8.07667V9.23667H10.6833V7.01083C10.6833 4.4275 12.2608 3.02083 14.5658 3.02083C15.67 3.02083 16.6183 3.10333 16.895 3.14V5.84L15.2967 5.84083C14.0433 5.84083 13.8008 6.43667 13.8008 7.31V9.2375H16.79L16.4008 12.2558H13.8008V20H18.8975C19.5058 20 20 19.5058 20 18.8958V1.10417C20 0.494167 19.5058 0 18.8958 0V0Z" fill="black"/>
</g>
<defs>
<clipPath id="clip0_22618_624">
<rect width="20" height="20" fill="white"/>
</clipPath>
</defs>
</svg>

<svg width="20" height="20" viewBox="0 0 20 20" xmlns="http://www.w3.org/2000/svg"><path d="M18.896 0H1.104A1.104 1.104 0 0 0 0 1.104v17.793C0 19.506.494 20 1.104 20H10.683v-7.745H8.077V9.237h2.606V7.011C10.683 4.428 12.261 3.02 14.566 3.02c1.104 0 2.052.083 2.329.12v2.7h-1.598c-1.254 0-1.496.596-1.496 1.47v1.927h2.989L16.401 12.256h-2.6V20h4.297A1.105 1.105 0 0 0 20 18.896V1.104A1.104 1.104 0 0 0 18.896 0Z" fill="#000"/></svg>
